X: 417
T: da Mirrie Boys o' Greenland
O: trad. Shetland
R: reel
S: handwritten MS by Anne Hooper, Boston Harbor Scottish Fiddle School, August 2009
Z: 2015 John Chambers <jc:trillian.mit.edu>
M: C|
L: 1/8
K: D
"A"|: "D"ABde fd(f2 | "A"e)<ece Aece | "D"ABde fdfa | "A7"gecA "D"d2d2 :|
"B"|: "D"fgfe fgaf | "A"gfec efge | "D"fgfe fgaf | "A7"gecA "D"d2d2 :|

%%sep 1 1 500

